icons/svg/16x16/home/filled.svg

<svg xmlns="http://www.w3.org/2000/svg" width="16" height="16" viewBox="0 0 16 16">
  <path fill-rule="evenodd" d="M10,12.9999 L6,12.9999 L6,9.1069 C6,8.1099 6.681,7.1879 7.664,7.0269 C8.917,6.8229 10,7.7849 10,8.9999 L10,12.9999 Z M8.707,0.2929 C8.316,-0.0981 7.684,-0.0981 7.293,0.2929 L0.293,7.2929 C-0.098,7.6839 -0.098,8.3159 0.293,8.7069 C0.684,9.0979 1.316,9.0979 1.707,8.7069 L2,8.4139 L2,12.9999 C2,14.1039 2.896,14.9999 4,14.9999 L12,14.9999 C13.104,14.9999 14,14.1039 14,12.9999 L14,8.4139 L14.293,8.7069 C14.488,8.9019 14.744,8.9999 15,8.9999 C15.256,8.9999 15.512,8.9019 15.707,8.7069 C16.098,8.3159 16.098,7.6839 15.707,7.2929 L8.707,0.2929 Z"/>
</svg>

<svg width="16" height="16" fill="none" xmlns="http://www.w3.org/2000/svg">
  <path fill-rule="evenodd" clip-rule="evenodd" d="M10 13H6V9.107c0-.996.681-1.919 1.664-2.08A2.002 2.002 0 0110 9v4zM8.707.293a.997.997 0 00-1.414 0l-7 7a.997.997 0 000 1.414.999.999 0 001.414 0L2 8.414V13a2 2 0 002 2h8a2 2 0 002-2V8.414l.293.293a.997.997 0 001.414 0 .997.997 0 000-1.414l-7-7z" fill="#000"/>
</svg>
